src/com/lilithsthrone/res/combat/kickIcon.svg

<?xml version="1.0" encoding="UTF-8" standalone="no"?>
<!-- Created with Inkscape (http://www.inkscape.org/) -->

<svg
   xmlns:dc="http://purl.org/dc/elements/1.1/"
   xmlns:cc="http://creativecommons.org/ns#"
   xmlns:rdf="http://www.w3.org/1999/02/22-rdf-syntax-ns#"
   xmlns:svg="http://www.w3.org/2000/svg"
   xmlns="http://www.w3.org/2000/svg"
   xmlns:sodipodi="http://sodipodi.sourceforge.net/DTD/sodipodi-0.dtd"
   xmlns:inkscape="http://www.inkscape.org/namespaces/inkscape"
   viewBox="0 0 256 256"
   id="svg2"
   version="1.1"
   inkscape:version="0.91 r13725"
   sodipodi:docname="kickIcon.svg">
  <defs
     id="defs4">
    <inkscape:path-effect
       cusp_linecap_type="round"
       end_linecap_type="zerowidth"
       miter_limit="4"
       linejoin_type="round"
       start_linecap_type="zerowidth"
       interpolator_beta="0.2"
       interpolator_type="Linear"
       sort_points="true"
       offset_points="0.25601354,8.1684104"
       is_visible="true"
       id="path-effect4152"
       effect="powerstroke" />
    <inkscape:path-effect
       effect="powerstroke"
       id="path-effect4154"
       is_visible="true"
       offset_points="0,0.5"
       sort_points="true"
       interpolator_type="CubicBezierJohan"
       interpolator_beta="0.2"
       start_linecap_type="zerowidth"
       linejoin_type="round"
       miter_limit="4"
       end_linecap_type="zerowidth"
       cusp_linecap_type="round" />
    <inkscape:path-effect
       effect="powerstroke"
       id="path-effect4150"
       is_visible="true"
       offset_points="0,0.5"
       sort_points="true"
       interpolator_type="CubicBezierJohan"
       interpolator_beta="0.2"
       start_linecap_type="zerowidth"
       linejoin_type="round"
       miter_limit="4"
       end_linecap_type="zerowidth"
       cusp_linecap_type="round" />
    <inkscape:path-effect
       effect="powerstroke"
       id="path-effect4146"
       is_visible="true"
       offset_points="0.34598408,6.7401315"
       sort_points="true"
       interpolator_type="Linear"
       interpolator_beta="0.2"
       start_linecap_type="zerowidth"
       linejoin_type="round"
       miter_limit="4"
       end_linecap_type="zerowidth"
       cusp_linecap_type="round" />
    <inkscape:path-effect
       effect="powerstroke"
       id="path-effect4146-2"
       is_visible="true"
       offset_points="0.34598408,6.7401315"
       sort_points="true"
       interpolator_type="Linear"
       interpolator_beta="0.2"
       start_linecap_type="zerowidth"
       linejoin_type="round"
       miter_limit="4"
       end_linecap_type="zerowidth"
       cusp_linecap_type="round" />
    <inkscape:path-effect
       effect="powerstroke"
       id="path-effect4146-2-7"
       is_visible="true"
       offset_points="0.34983355,5.1754019"
       sort_points="true"
       interpolator_type="Linear"
       interpolator_beta="0.2"
       start_linecap_type="zerowidth"
       linejoin_type="round"
       miter_limit="4"
       end_linecap_type="zerowidth"
       cusp_linecap_type="round" />
    <inkscape:path-effect
       effect="powerstroke"
       id="path-effect4146-2-4"
       is_visible="true"
       offset_points="0.34598408,6.7401315"
       sort_points="true"
       interpolator_type="Linear"
       interpolator_beta="0.2"
       start_linecap_type="zerowidth"
       linejoin_type="round"
       miter_limit="4"
       end_linecap_type="zerowidth"
       cusp_linecap_type="round" />
    <inkscape:path-effect
       effect="powerstroke"
       id="path-effect4146-2-4-1"
       is_visible="true"
       offset_points="0.25601354,11.696941"
       sort_points="true"
       interpolator_type="Linear"
       interpolator_beta="0.2"
       start_linecap_type="zerowidth"
       linejoin_type="round"
       miter_limit="4"
       end_linecap_type="zerowidth"
       cusp_linecap_type="round" />
    <inkscape:path-effect
       effect="powerstroke"
       id="path-effect4146-2-4-1-0"
       is_visible="true"
       offset_points="0.25601354,11.696941"
       sort_points="true"
       interpolator_type="Linear"
       interpolator_beta="0.2"
       start_linecap_type="zerowidth"
       linejoin_type="round"
       miter_limit="4"
       end_linecap_type="zerowidth"
       cusp_linecap_type="round" />
    <inkscape:path-effect
       effect="powerstroke"
       id="path-effect4146-2-4-1-1"
       is_visible="true"
       offset_points="0.24778369,14.766099"
       sort_points="true"
       interpolator_type="Linear"
       interpolator_beta="0.2"
       start_linecap_type="zerowidth"
       linejoin_type="round"
       miter_limit="4"
       end_linecap_type="zerowidth"
       cusp_linecap_type="round" />
    <inkscape:path-effect
       effect="powerstroke"
       id="path-effect4146-2-4-1-3"
       is_visible="true"
       offset_points="0.25601354,11.696941"
       sort_points="true"
       interpolator_type="Linear"
       interpolator_beta="0.2"
       start_linecap_type="zerowidth"
       linejoin_type="round"
       miter_limit="4"
       end_linecap_type="zerowidth"
       cusp_linecap_type="round" />
    <inkscape:path-effect
       cusp_linecap_type="round"
       end_linecap_type="zerowidth"
       miter_limit="4"
       linejoin_type="round"
       start_linecap_type="zerowidth"
       interpolator_beta="0.2"
       interpolator_type="Linear"
       sort_points="true"
       offset_points="0.25601354,8.1684104"
       is_visible="true"
       id="path-effect4152-6"
       effect="powerstroke" />
    <inkscape:path-effect
       effect="powerstroke"
       id="path-effect4146-2-4-1-7"
       is_visible="true"
       offset_points="0.25601354,11.696941"
       sort_points="true"
       interpolator_type="Linear"
       interpolator_beta="0.2"
       start_linecap_type="zerowidth"
       linejoin_type="round"
       miter_limit="4"
       end_linecap_type="zerowidth"
       cusp_linecap_type="round" />
    <inkscape:path-effect
       cusp_linecap_type="round"
       end_linecap_type="zerowidth"
       miter_limit="4"
       linejoin_type="round"
       start_linecap_type="zerowidth"
       interpolator_beta="0.2"
       interpolator_type="Linear"
       sort_points="true"
       offset_points="0.25601354,8.1684104"
       is_visible="true"
       id="path-effect4152-9"
       effect="powerstroke" />
  </defs>
  <sodipodi:namedview
     id="base"
     pagecolor="#ffffff"
     bordercolor="#666666"
     borderopacity="1.0"
     inkscape:pageopacity="0.0"
     inkscape:pageshadow="2"
     inkscape:zoom="3.959798"
     inkscape:cx="140.19964"
     inkscape:cy="144.68927"
     inkscape:document-units="px"
     inkscape:current-layer="layer2"
     showgrid="false"
     units="px"
     inkscape:window-width="2560"
     inkscape:window-height="1388"
     inkscape:window-x="-8"
     inkscape:window-y="-8"
     inkscape:window-maximized="1" />
  <metadata
     id="metadata7">
    <rdf:RDF>
      <cc:Work
         rdf:about="">
        <dc:format>image/svg+xml</dc:format>
        <dc:type
           rdf:resource="http://purl.org/dc/dcmitype/StillImage" />
        <dc:title></dc:title>
      </cc:Work>
    </rdf:RDF>
  </metadata>
  <g
     inkscape:groupmode="layer"
     id="layer2"
     inkscape:label="Layer 2"
     style="display:inline">
    <path
       style="fill:#ff5555;fill-rule:evenodd;stroke:#000000;stroke-width:1.327;stroke-linecap:butt;stroke-linejoin:miter;stroke-miterlimit:4;stroke-dasharray:none;stroke-opacity:1"
       d="M 180.25054,229.2415 C 267.58599,186.53795 229.28711,45.435262 150.39005,10.093126 140.98199,5.878769 128.11599,34.196535 132.85318,37.4148 181.02551,70.141274 203.51962,161.08822 159.29598,182.72059 114.99801,204.38935 55.931471,136.12208 60.122614,73.270173 60.498951,67.626652 30.516092,57.03852 28.293933,67.712027 8.6949678,161.85008 95.851672,270.50921 180.25054,229.2415 Z m -35.40697,-0.3403 a 14.476805,14.559526 64.438736 0 1 -19.38135,-6.77761 14.476805,14.559526 64.438736 0 1 6.88858,-19.34216 14.476805,14.559526 64.438736 0 1 19.38134,6.77755 14.476805,14.559526 64.438736 0 1 -6.88857,19.34222 z m 55.61458,-27.51655 a 14.476805,14.559526 64.438736 0 1 -19.3814,-6.77754 14.476805,14.559526 64.438736 0 1 6.88859,-19.34221 14.476805,14.559526 64.438736 0 1 19.38137,6.77754 14.476805,14.559526 64.438736 0 1 -6.88856,19.34221 z m -110.833925,-5.4944 a 14.476805,14.559526 64.438736 0 1 -19.381357,-6.77756 14.476805,14.559526 64.438736 0 1 6.888549,-19.34223 14.476805,14.559526 64.438736 0 1 19.381377,6.7776 14.476805,14.559526 64.438736 0 1 -6.888569,19.34219 z M 210.74885,137.77517 a 14.476805,14.559526 64.438736 0 1 -19.38138,-6.77757 14.476805,14.559526 64.438736 0 1 6.88855,-19.34217 14.476805,14.559526 64.438736 0 1 19.38139,6.77753 14.476805,14.559526 64.438736 0 1 -6.88856,19.34221 z m -154.475462,4.8176 a 14.476805,14.559526 64.438736 0 1 -19.381373,-6.77756 14.476805,14.559526 64.438736 0 1 6.888589,-19.34219 14.476805,14.559526 64.438736 0 1 19.379724,6.77834 14.476805,14.559526 64.438736 0 1 -6.88694,19.34141 z M 190.89351,77.854491 a 14.476805,14.559526 64.438736 0 1 -19.38136,-6.777555 14.476805,14.559526 64.438736 0 1 6.88856,-19.3422 14.476805,14.559526 64.438736 0 1 19.37974,6.778363 14.476805,14.559526 64.438736 0 1 -6.88694,19.341392 z"
       id="path4469"
       inkscape:connector-curvature="0" />
  </g>
</svg>

<svg xmlns="http://www.w3.org/2000/svg" viewBox="0 0 256 256">
    <path fill="#f55" fill-rule="evenodd" stroke="#000" stroke-width="1.327" d="M180.25 229.242c87.336-42.704 49.037-183.807-29.86-219.149-9.408-4.214-22.274 24.104-17.537 27.322 48.173 32.726 70.667 123.673 26.443 145.306-44.298 21.668-103.365-46.599-99.173-109.45.376-5.644-29.607-16.232-31.83-5.559-19.598 94.138 67.559 202.797 151.958 161.53zm-35.406-.34a14.477 14.56 64.439 0 1-19.382-6.778 14.477 14.56 64.439 0 1 6.889-19.343 14.477 14.56 64.439 0 1 19.381 6.778 14.477 14.56 64.439 0 1-6.888 19.342zm55.614-27.517a14.477 14.56 64.439 0 1-19.381-6.778 14.477 14.56 64.439 0 1 6.888-19.342 14.477 14.56 64.439 0 1 19.382 6.777 14.477 14.56 64.439 0 1-6.889 19.343zM89.624 195.89a14.477 14.56 64.439 0 1-19.381-6.777 14.477 14.56 64.439 0 1 6.888-19.343 14.477 14.56 64.439 0 1 19.382 6.778 14.477 14.56 64.439 0 1-6.889 19.342zm121.125-58.115a14.477 14.56 64.439 0 1-19.382-6.777 14.477 14.56 64.439 0 1 6.889-19.343 14.477 14.56 64.439 0 1 19.381 6.778 14.477 14.56 64.439 0 1-6.888 19.342zm-154.476 4.818a14.477 14.56 64.439 0 1-19.381-6.778 14.477 14.56 64.439 0 1 6.889-19.342 14.477 14.56 64.439 0 1 19.38 6.778 14.477 14.56 64.439 0 1-6.888 19.342zm134.62-64.739a14.477 14.56 64.439 0 1-19.38-6.777 14.477 14.56 64.439 0 1 6.888-19.342 14.477 14.56 64.439 0 1 19.38 6.778 14.477 14.56 64.439 0 1-6.887 19.341z"/>
</svg>
